X:234
T:Nymph (the)
R:polka 48
C:Trad arr. P J Headford
M:2/4
L:1/16
Q:1/4=120
K:D
|:d2dc d2A2|d2f2 a2f2|g2e2 d2c2|dcde d2A2|
d2dc d2A2|d2f2 a2f2|g2e2 d2c2|d4 d4:|
|:g2f2 f4|e2d2 d4|c2d2 e2f2|gagf e4|
g2f2 f4|e2d2 d4|e2g2 fedc|d4 d4:|
|:f6 a2|d6 f2|^d2e2 g2e2|=d2c2 B2A2|
d4 e2f2|g6 f2|f2e2 d2c2|d4 d4:|]
" key C"
K:C
|:c2cB c2G2|c2e2 g2e2|f2d2 c2B2|cBcd c2G2|
c2cB c2G2|c2e2 g2e2|f2d2 c2B2|c4 c4:|
|:f2e2 e4|d2c2 c4|B2c2 d2e2|fgfe d4|
f2e2 e4|d2c2 c4|d2f2 edcB|c4 c4:|
|:e6 g2|c6 e2|^c2d2 f2d2|=c2B2 A2G2|
c4 d2e2|f6 e2|e2d2 c2B2|c4 c4:|]

